X: 10433
T: The COBBLER OF CASTLEBERRY
C: Dibdin.
Q: "Moderately quick."
%R: air, waltz, jig
B: W. Hamilton "Universal Tune-Book" Vol. 1 Glasgow 1844 p.43 #3
S: http://imslp.org/wiki/Hamilton's_Universal_Tune-Book_(Various)
Z: 2016 John Chambers <jc:trillian.mit.edu>
M: 3/4
L: 1/8
K: Bb
% - - - - - - - - - - - - - - - - - - - - - - - - -
fdf |\
(d2B) BGB | (F2D) BAB |\
(cd/e/) df Ge | (d2c) fdf |\
(d2B) BGB | (F2D) ccc |\
c>BAffc | d3 dcE |\
(FG/A/) (c/B/A/G/) FE | F3 :|
|: fff |\
(f2d) fgf | (f2d) fgf |\
f>dB fed | (d2c) fdf |\
(d2B) BGB | (F2D) BAB |\
(cd/e/) dBcd | e3 gfc |\
(Bc/d/) (f/e/d/c/) BA | B3 |]
% - - - - - - - - - - - - - - - - - - - - - - - - -

%%sep 1 1 500
%%sep 1 1 500

